X: 41487
T: Tyrol
R: polka
M: 2/4
K: Gmajor
|:gB gf|ed d2|dA Ae|dG Gd|
gB gf|ed d2|dA Ae|g2 g2:|
|:GA Bc|dg Be|Aa fd|Bd dB|
GA Bc|dg Be|Aa fd|g2 g2:|

